;FLAVOR:Marlin
;TIME:9153
;Filament used: 2.01217m
;Layer height: 0.1
;MINX:5.984
;MINY:3.288
;MINZ:0.3
;MAXX:94.017
;MAXY:91.304
;MAXZ:36.9
;Generated with Cura_SteamEngine 4.8.0
M104 S200
M105
M109 S200
M82 ;absolute extrusion mode
G28 ;Home
G1 Z15.0 F6000 ;Move the platform down 15mm
;Prime the extruder
G92 E0
G1 F200 E3
G92 E0
G92 E0
G92 E0
G1 F1500 E-6.5
;LAYER_COUNT:367
;LAYER:0
M107
G0 F3600 X17.973 Y17.103 Z0.3
;TYPE:SKIRT
G1 F1500 E0
G1 F1800 X18.442 Y16.619 E0.01268
G1 X19.092 Y15.96 E0.03009
G1 X19.522 Y15.54 E0.0414
G1 X19.999 Y15.096 E0.05365
G1 X20.689 Y14.461 E0.07129
G1 X21.139 Y14.063 E0.08259
G1 X21.648 Y13.634 E0.09512
G1 X22.273 Y13.115 E0.1104
G1 X22.793 Y12.701 E0.1229
G1 X22.914 Y12.606 E0.12579
G1 X23.866 Y11.882 E0.14829
G1 X24.042 Y11.753 E0.1524
G1 X24.671 Y11.304 E0.16693
G1 X25.653 Y10.632 E0.18932
G1 X25.823 Y10.519 E0.19316
G1 X26.335 Y10.188 E0.20462
G1 X26.487 Y10.092 E0.20801
G1 X27.493 Y9.474 E0.23021
G1 X27.679 Y9.363 E0.23429
G1 X28.213 Y9.055 E0.24589
G1 X29.394 Y8.407 E0.27122
G1 X29.577 Y8.309 E0.27513
G1 X30.132 Y8.024 E0.28687
G1 X30.293 Y7.944 E0.29025
G1 X31.343 Y7.435 E0.3122
G1 X31.52 Y7.352 E0.31587
G1 X32.097 Y7.09 E0.32779
G1 X32.285 Y7.007 E0.33166
G1 X33.494 Y6.496 E0.35635
G1 X34.139 Y6.241 E0.3694
G1 X34.309 Y6.177 E0.37281
G1 X35.542 Y5.727 E0.3975
G1 X35.808 Y5.635 E0.4028
G1 X36.675 Y5.354 E0.41994
G1 X37.624 Y5.06 E0.43863
G1 X37.891 Y4.983 E0.44386
G1 X38.758 Y4.748 E0.46075
G1 X39.554 Y4.543 E0.47622
G1 X40.37 Y4.351 E0.49198
G1 X40.575 Y4.306 E0.49593
G1 X41.868 Y4.042 E0.52076
G1 X42.529 Y3.923 E0.53339
G1 X42.721 Y3.891 E0.53705
G1 X43.829 Y3.72 E0.55814
G1 X44.683 Y3.607 E0.57434
G1 X44.894 Y3.582 E0.57834
G1 X46.001 Y3.468 E0.59927
G1 X46.174 Y3.452 E0.60254
G1 X46.857 Y3.397 E0.61543
G1 X47.061 Y3.383 E0.61928
G1 X48.168 Y3.323 E0.64013
G1 X49.045 Y3.295 E0.65664
G1 X49.267 Y3.291 E0.66081
G1 X50.872 Y3.288 E0.69101
G1 X51.771 Y3.324 E0.70793
G1 X53.063 Y3.386 E0.73226
G1 X53.903 Y3.461 E0.74812
G1 X55.248 Y3.593 E0.77355
G1 X56.082 Y3.71 E0.78939
G1 X56.975 Y3.843 E0.80637
G1 X57.61 Y3.945 E0.81847
G1 X57.905 Y3.998 E0.82411
G1 X59.572 Y4.332 E0.85609
G1 X60.36 Y4.524 E0.87134
G1 X61.701 Y4.863 E0.89736
G1 X62.512 Y5.104 E0.91328
G1 X63.737 Y5.478 E0.93737
G1 X64.122 Y5.606 E0.945
G1 X65.874 Y6.242 E0.98006
G1 X66.629 Y6.551 E0.99541
G1 X67.89 Y7.08 E1.02113
G1 X68.268 Y7.25 E1.02893
G1 X69.606 Y7.896 E1.05687
G1 X69.78 Y7.982 E1.06053
G1 X70.393 Y8.297 E1.07349
G1 X70.555 Y8.383 E1.07694
G1 X71.533 Y8.915 E1.09788
G1 X71.713 Y9.016 E1.10176
G1 X72.304 Y9.358 E1.11461
G1 X72.463 Y9.453 E1.11809
G1 X73.419 Y10.037 E1.13917
G1 X73.58 Y10.138 E1.14274
G1 X74.146 Y10.503 E1.15541
G1 X74.309 Y10.611 E1.15909
G1 X75.24 Y11.245 E1.18028
G1 X75.408 Y11.362 E1.18413
G1 X75.951 Y11.753 E1.19671
G1 X76.096 Y11.86 E1.2001
G1 X77.001 Y12.544 E1.22144
G1 X77.156 Y12.665 E1.22514
G1 X77.671 Y13.075 E1.23752
G1 X77.823 Y13.199 E1.24121
G1 X78.842 Y14.055 E1.26625
G1 X79.332 Y14.486 E1.27852
G1 X79.481 Y14.621 E1.2823
G1 X80.324 Y15.402 E1.30392
G1 X80.459 Y15.53 E1.30742
G1 X80.921 Y15.979 E1.31954
G1 X81.068 Y16.125 E1.32344
G1 X81.875 Y16.952 E1.34517
G1 X82.435 Y17.551 E1.3606
G1 X82.565 Y17.694 E1.36423
G1 X83.336 Y18.564 E1.3861
G1 X83.47 Y18.719 E1.38995
G1 X83.875 Y19.201 E1.40179
G1 X83.997 Y19.35 E1.40542
G1 X84.728 Y20.265 E1.42745
G1 X84.844 Y20.414 E1.431
G1 X85.221 Y20.91 E1.44272
G1 X85.337 Y21.068 E1.44641
G1 X86.13 Y22.17 E1.47194
G1 X86.478 Y22.677 E1.48351
G1 X86.591 Y22.847 E1.48735
G1 X87.326 Y23.982 E1.51279
G1 X87.645 Y24.498 E1.5242
G1 X87.756 Y24.685 E1.52829
G1 X88.406 Y25.805 E1.55265
G1 X88.761 Y26.455 E1.56658
G1 X89.16 Y27.219 E1.58279
G1 X89.437 Y27.76 E1.59423
G1 X89.74 Y28.387 E1.60732
G1 X90.345 Y29.712 E1.63472
G1 X90.632 Y30.391 E1.64859
G1 X90.958 Y31.203 E1.66505
G1 X91.179 Y31.767 E1.67644
G1 X91.402 Y32.372 E1.68857
G1 X91.459 Y32.533 E1.69179
G1 X91.959 Y34.002 E1.72097
G1 X92.15 Y34.647 E1.73363
G1 X92.345 Y35.32 E1.74681
G1 X92.51 Y35.902 E1.75819
G1 X92.564 Y36.103 E1.7621
G1 X92.756 Y36.864 E1.77687
G1 X93.023 Y38.032 E1.7994
G1 X93.059 Y38.197 E1.80258
G1 X93.178 Y38.775 E1.81368
G1 X93.216 Y38.973 E1.81747
G1 X93.427 Y40.151 E1.83998
G1 X93.46 Y40.349 E1.84376
G1 X93.549 Y40.932 E1.85485
G1 X93.575 Y41.117 E1.85837
G1 X93.727 Y42.302 E1.88084
G1 X93.749 Y42.497 E1.88453
G1 X93.809 Y43.081 E1.89558
G1 X93.826 Y43.27 E1.89915
G1 X93.919 Y44.46 E1.9216
G1 X93.935 Y44.719 E1.92648
G1 X93.984 Y45.805 E1.94693
G1 X94.004 Y46.306 E1.95636
G1 X94.01 Y46.537 E1.96071
G1 X94.017 Y47.216 E1.97348
G1 X94.014 Y47.517 E1.97914
G1 X93.959 Y49.415 E2.01486
G1 X93.932 Y49.955 E2.02503
G1 X93.851 Y51.073 E2.04612
G1 X93.832 Y51.285 E2.05012
G1 X93.748 Y52.109 E2.0657
G1 X93.593 Y53.364 E2.08949
G1 X93.518 Y53.896 E2.09959
G1 X93.491 Y54.072 E2.10294
G1 X93.375 Y54.769 E2.11623
G1 X93.231 Y55.564 E2.13143
G1 X93.181 Y55.817 E2.13628
G1 X93.024 Y56.544 E2.15027
G1 X92.816 Y57.465 E2.16803
G1 X92.632 Y58.218 E2.18261
G1 X92.511 Y58.673 E2.19147
G1 X92.264 Y59.554 E2.20868
G1 X92.087 Y60.157 E2.2205
G1 X91.932 Y60.651 E2.23024
G1 X91.642 Y61.526 E2.24758
G1 X91.377 Y62.284 E2.26269
G1 X91.185 Y62.8 E2.27304
G1 X90.842 Y63.682 E2.29084
G1 X90.584 Y64.316 E2.30372
G1 X90.368 Y64.818 E2.314
G1 X89.992 Y65.66 E2.33135
G1 X89.763 Y66.156 E2.34162
G1 X89.502 Y66.694 E2.35287
G1 X89.073 Y67.54 E2.37071
G1 X88.691 Y68.267 E2.38616
G1 X88.439 Y68.722 E2.39594
G1 X87.969 Y69.545 E2.41377
G1 X87.603 Y70.161 E2.42725
G1 X87.32 Y70.616 E2.43733
G1 X86.836 Y71.372 E2.45422
G1 X86.526 Y71.846 E2.46487
G1 X86.171 Y72.363 E2.47667
G1 X85.587 Y73.183 E2.4956
G1 X85.249 Y73.646 E2.50639
G1 X84.904 Y74.1 E2.51711
G1 X84.808 Y74.224 E2.52006
G1 X84.053 Y75.173 E2.54287
G1 X83.921 Y75.334 E2.54679
G1 X83.543 Y75.784 E2.55784
G1 X83.428 Y75.918 E2.56117
G1 X82.632 Y76.823 E2.58384
G1 X82.502 Y76.967 E2.58749
G1 X82.098 Y77.404 E2.59868
G1 X81.964 Y77.546 E2.60235
G1 X81.128 Y78.406 E2.62492
G1 X80.979 Y78.555 E2.62888
G1 X80.548 Y78.975 E2.6402
G1 X80.423 Y79.094 E2.64345
G1 X79.551 Y79.907 E2.66587
G1 X79.398 Y80.046 E2.66976
G1 X78.941 Y80.45 E2.68123
G1 X78.803 Y80.569 E2.68466
G1 X77.897 Y81.333 E2.70695
G1 X77.743 Y81.46 E2.71071
G1 X77.262 Y81.845 E2.7223
G1 X77.108 Y81.965 E2.72597
G1 X76.17 Y82.678 E2.74813
G1 X75.508 Y83.158 E2.76352
G1 X75.354 Y83.267 E2.76706
G1 X74.39 Y83.928 E2.78905
G1 X74.22 Y84.041 E2.79289
G1 X73.689 Y84.385 E2.80479
G1 X73.537 Y84.481 E2.80817
G1 X72.546 Y85.091 E2.83006
G1 X72.364 Y85.2 E2.83405
G1 X71.811 Y85.52 E2.84607
G1 X71.651 Y85.61 E2.84953
G1 X70.886 Y86.029 E2.86593
G1 X70.332 Y86.328 E2.87778
G1 X70.097 Y86.45 E2.88276
G1 X69.426 Y86.783 E2.89685
G1 X68.685 Y87.142 E2.91233
G1 X67.915 Y87.494 E2.92826
G1 X67.724 Y87.578 E2.93219
G1 X66.511 Y88.091 E2.95696
G1 X66.264 Y88.19 E2.96196
G1 X65.417 Y88.514 E2.97902
G1 X64.645 Y88.797 E2.99449
G1 X64.475 Y88.857 E2.99788
G1 X63.841 Y89.073 E3.01048
G1 X63.64 Y89.139 E3.01446
G1 X62.565 Y89.473 E3.03563
G1 X61.753 Y89.708 E3.05154
G1 X61.541 Y89.766 E3.05567
G1 X60.459 Y90.044 E3.07668
G1 X59.627 Y90.24 E3.09276
G1 X59.425 Y90.284 E3.09665
G1 X58.338 Y90.508 E3.11753
G1 X58.152 Y90.544 E3.12109
G1 X57.472 Y90.667 E3.13409
G1 X57.279 Y90.7 E3.13777
G1 X56.189 Y90.869 E3.15852
G1 X55.997 Y90.896 E3.16217
G1 X55.303 Y90.986 E3.17533
G1 X55.106 Y91.009 E3.17906
G1 X54.018 Y91.122 E3.19964
G1 X53.831 Y91.139 E3.20317
G1 X53.127 Y91.195 E3.21646
G1 X52.918 Y91.209 E3.2204
G1 X51.322 Y91.293 E3.25046
G1 X50.447 Y91.302 E3.26692
G1 X49.512 Y91.304 E3.28451
G1 X48.983 Y91.296 E3.29446
G1 X48.299 Y91.272 E3.30733
G1 X47.335 Y91.226 E3.32549
G1 X46.795 Y91.191 E3.33567
G1 X46.199 Y91.141 E3.34692
G1 X45.303 Y91.055 E3.36385
G1 X44.613 Y90.977 E3.37691
G1 X43.952 Y90.888 E3.38946
G1 X43.016 Y90.749 E3.40726
G1 X42.46 Y90.658 E3.41786
G1 X41.88 Y90.551 E3.42895
G1 X40.869 Y90.349 E3.44834
G1 X40.308 Y90.228 E3.45914
G1 X39.789 Y90.107 E3.46916
G1 X38.777 Y89.851 E3.4888
G1 X38.122 Y89.676 E3.50155
G1 X37.541 Y89.506 E3.51294
G1 X36.486 Y89.181 E3.5337
G1 X36.288 Y89.118 E3.53761
G1 X35.636 Y88.898 E3.55056
G1 X35.466 Y88.838 E3.55395
G1 X34.423 Y88.459 E3.57482
G1 X34.236 Y88.388 E3.57858
G1 X33.602 Y88.139 E3.5914
G1 X33.424 Y88.067 E3.59501
G1 X32.394 Y87.633 E3.61603
G1 X32.215 Y87.555 E3.61971
G1 X31.601 Y87.278 E3.63238
G1 X31.426 Y87.196 E3.63601
G1 X30.412 Y86.708 E3.65718
G1 X30.236 Y86.621 E3.66087
G1 X29.487 Y86.235 E3.67672
G1 X28.367 Y85.628 E3.70069
G1 X28.129 Y85.493 E3.70583
G1 X27.58 Y85.169 E3.71783
G1 X26.483 Y84.501 E3.74198
G1 X26.274 Y84.369 E3.74663
G1 X25.737 Y84.017 E3.75871
G1 X24.667 Y83.291 E3.78304
G1 X24.037 Y82.835 E3.79766
G1 X22.907 Y81.985 E3.82426
G1 X22.319 Y81.515 E3.83842
G1 X21.22 Y80.6 E3.86532
G1 X20.643 Y80.088 E3.87983
G1 X19.596 Y79.122 E3.90663
G1 X19.092 Y78.633 E3.91984
G1 X18.048 Y77.568 E3.94789
G1 X17.571 Y77.055 E3.96107
G1 X16.602 Y75.966 E3.98849
G1 X16.127 Y75.4 E4.00239
G1 X15.206 Y74.256 E4.03002
G1 X14.774 Y73.684 E4.0435
G1 X13.929 Y72.52 E4.07056
G1 X13.52 Y71.923 E4.08417
G1 X12.701 Y70.667 E4.11237
G1 X12.339 Y70.074 E4.12544
G1 X11.88 Y69.292 E4.1425
G1 X11.576 Y68.767 E4.15391
G1 X11.272 Y68.211 E4.16583
G1 X10.85 Y67.403 E4.18298
G1 X10.553 Y66.823 E4.19523
G1 X10.286 Y66.271 E4.20677
G1 X9.879 Y65.388 E4.22506
G1 X9.629 Y64.834 E4.23649
G1 X9.394 Y64.278 E4.24785
G1 X8.822 Y62.849 E4.2768
G1 X8.729 Y62.603 E4.28175
G1 X8.527 Y62.043 E4.29294
G1 X8.471 Y61.882 E4.29615
G1 X8.087 Y60.74 E4.31881
G1 X8.021 Y60.535 E4.32287
G1 X7.799 Y59.804 E4.33724
G1 X7.471 Y58.642 E4.35995
G1 X7.418 Y58.443 E4.36382
G1 X7.272 Y57.868 E4.37498
G1 X7.228 Y57.686 E4.3785
G1 X6.959 Y56.509 E4.40121
G1 X6.802 Y55.746 E4.41587
G1 X6.764 Y55.547 E4.41968
G1 X6.554 Y54.357 E4.44241
G1 X6.521 Y54.159 E4.44618
G1 X6.433 Y53.573 E4.45733
G1 X6.409 Y53.397 E4.46067
G1 X6.257 Y52.199 E4.48339
G1 X6.234 Y51.993 E4.48729
G1 X6.175 Y51.403 E4.49844
G1 X6.158 Y51.214 E4.50201
G1 X6.067 Y50.009 E4.52474
G1 X6.054 Y49.804 E4.52861
G1 X6.019 Y49.061 E4.5426
G1 X6 Y48.404 E4.55496
G1 X5.986 Y47.805 E4.56623
G1 X5.984 Y47.623 E4.56966
G1 X5.984 Y47.03 E4.58081
G1 X6 Y46.214 E4.59616
G1 X6.022 Y45.442 E4.61069
G1 X6.051 Y44.849 E4.62186
G1 X6.108 Y44.028 E4.63734
G1 X6.154 Y43.429 E4.64864
G1 X6.173 Y43.221 E4.65257
G1 X6.243 Y42.555 E4.66517
G1 X6.352 Y41.665 E4.68203
G1 X6.46 Y40.848 E4.69753
G1 X6.542 Y40.309 E4.70779
G1 X6.75 Y39.121 E4.73048
G1 X6.785 Y38.934 E4.73405
G1 X6.902 Y38.35 E4.74526
G1 X6.942 Y38.163 E4.74886
G1 X7.208 Y36.986 E4.77155
G1 X7.256 Y36.785 E4.77544
G1 X7.402 Y36.21 E4.7866
G1 X7.45 Y36.031 E4.79009
G1 X7.775 Y34.868 E4.8128
G1 X7.829 Y34.682 E4.81644
G1 X8.003 Y34.114 E4.82762
G1 X8.063 Y33.927 E4.83131
G1 X8.445 Y32.784 E4.85398
G1 X8.507 Y32.605 E4.85755
G1 X8.709 Y32.046 E4.86873
G1 X8.777 Y31.865 E4.87236
G1 X9.215 Y30.741 E4.89506
G1 X9.291 Y30.554 E4.89885
G1 X9.595 Y29.834 E4.91355
G1 X10.089 Y28.732 E4.93627
G1 X10.176 Y28.546 E4.94013
G1 X10.433 Y28.011 E4.9513
G1 X10.515 Y27.846 E4.95476
G1 X11.063 Y26.771 E4.97746
G1 X11.155 Y26.595 E4.9812
G1 X11.438 Y26.073 E4.99237
G1 X11.53 Y25.908 E4.99592
G1 X12.131 Y24.861 E5.01863
G1 X12.23 Y24.694 E5.02228
G1 X12.641 Y24.021 E5.03711
G1 X13.293 Y23.006 E5.05981
G1 X13.737 Y22.349 E5.07472
G1 X13.844 Y22.195 E5.07825
G1 X14.545 Y21.214 E5.10093
G1 X14.662 Y21.054 E5.10466
G1 X15.02 Y20.579 E5.11585
G1 X15.134 Y20.431 E5.11936
G1 X15.511 Y19.955 E5.13078
G1 X16.143 Y19.171 E5.14973
G1 X16.522 Y18.72 E5.16081
G1 X16.956 Y18.226 E5.17318
G1 X17.585 Y17.522 E5.19093
G1 X17.973 Y17.103 E5.20168
G0 F3600 X18.261 Y17.381
G1 F1800 X18.727 Y16.9 E5.21427
G1 X19.373 Y16.245 E5.23158
G1 X19.794 Y15.833 E5.24266
G1 X20.27 Y15.39 E5.25489
G1 X20.955 Y14.759 E5.27241
G1 X21.396 Y14.369 E5.28348
G1 X21.903 Y13.942 E5.29595
G1 X22.528 Y13.423 E5.31123
G1 X23.041 Y13.014 E5.32358
G1 X24.109 Y12.201 E5.34882
G1 X24.275 Y12.078 E5.35271
G1 X24.897 Y11.634 E5.36709
G1 X25.879 Y10.962 E5.38947
G1 X26.04 Y10.855 E5.3931
G1 X26.552 Y10.524 E5.40457
G1 X26.697 Y10.433 E5.40779
G1 X27.703 Y9.815 E5.43
G1 X27.879 Y9.71 E5.43386
G1 X28.556 Y9.321 E5.44854
G1 X29.586 Y8.757 E5.47063
G1 X29.76 Y8.665 E5.47434
G1 X30.315 Y8.38 E5.48607
G1 X30.467 Y8.304 E5.48927
G1 X31.517 Y7.795 E5.51122
G1 X31.685 Y7.716 E5.51471
G1 X32.262 Y7.454 E5.52663
G1 X32.441 Y7.376 E5.5303
G1 X33.65 Y6.865 E5.55499
G1 X34.285 Y6.613 E5.56784
G1 X34.446 Y6.552 E5.57108
G1 X35.679 Y6.102 E5.59577
G1 X35.931 Y6.016 E5.60078
G1 X36.793 Y5.736 E5.61783
G1 X37.742 Y5.442 E5.63652
G1 X37.996 Y5.369 E5.64149
G1 X38.857 Y5.136 E5.65827
G1 X39.815 Y4.891 E5.67687
G1 X40.461 Y4.74 E5.68935
G1 X40.656 Y4.697 E5.6931
G1 X41.761 Y4.47 E5.71432
G1 X41.939 Y4.436 E5.71773
G1 X42.6 Y4.317 E5.73037
G1 X42.782 Y4.287 E5.73384
G1 X44.061 Y4.091 E5.75818
G1 X44.735 Y4.003 E5.77096
G1 X44.935 Y3.98 E5.77475
G1 X46.042 Y3.866 E5.79568
G1 X46.206 Y3.851 E5.79878
G1 X46.889 Y3.796 E5.81167
G1 X47.083 Y3.783 E5.81533
G1 X48.366 Y3.715 E5.83949
G1 X49.058 Y3.694 E5.85252
G1 X49.268 Y3.691 E5.85647
G1 X50.873 Y3.688 E5.88666
G1 X51.704 Y3.722 E5.9023
G1 X53.044 Y3.785 E5.92754
G1 X53.864 Y3.859 E5.94302
G1 X55.209 Y3.991 E5.96845
G1 X56.003 Y4.103 E5.98353
G1 X56.912 Y4.238 E6.00082
G1 X57.547 Y4.34 E6.01291
G1 X57.827 Y4.39 E6.01826
G1 X59.494 Y4.724 E6.05024
G1 X60.292 Y4.92 E6.0657
G1 X61.603 Y5.251 E6.09114
G1 X62.342 Y5.47 E6.10563
G1 X63.62 Y5.86 E6.13077
G1 X63.985 Y5.982 E6.13801
G1 X65.737 Y6.618 E6.17307
G1 X66.43 Y6.901 E6.18715
G1 X67.736 Y7.448 E6.21378
G1 X68.094 Y7.61 E6.22117
G1 X69.432 Y8.256 E6.24912
G1 X69.597 Y8.338 E6.25259
G1 X70.21 Y8.653 E6.26555
G1 X71.342 Y9.267 E6.28978
G1 X71.512 Y9.362 E6.29344
G1 X72.255 Y9.794 E6.30961
G1 X73.211 Y10.378 E6.33068
G1 X73.929 Y10.839 E6.34673
G1 X74.084 Y10.942 E6.35023
G1 X75.015 Y11.576 E6.37142
G1 X75.174 Y11.687 E6.37507
G1 X75.855 Y12.179 E6.39087
G1 X76.76 Y12.863 E6.41221
G1 X77.422 Y13.388 E6.4281
G1 X77.566 Y13.505 E6.43159
G1 X78.443 Y14.24 E6.45312
G1 X79.067 Y14.787 E6.46873
G1 X79.209 Y14.915 E6.47232
G1 X80.052 Y15.696 E6.49394
G1 X80.18 Y15.817 E6.49725
G1 X80.642 Y16.266 E6.50937
G1 X80.781 Y16.405 E6.51307
G1 X81.707 Y17.356 E6.53804
G1 X82.142 Y17.823 E6.55004
G1 X82.265 Y17.959 E6.55349
G1 X83.036 Y18.829 E6.57536
G1 X83.164 Y18.977 E6.57904
G1 X83.569 Y19.459 E6.59088
G1 X83.685 Y19.6 E6.59432
G1 X84.416 Y20.515 E6.61635
G1 X84.902 Y21.152 E6.63142
G1 X85.013 Y21.302 E6.63493
G1 X85.8 Y22.396 E6.66028
G1 X86.148 Y22.903 E6.67184
G1 X86.256 Y23.064 E6.67549
G1 X86.9 Y24.057 E6.69775
G1 X87.304 Y24.709 E6.71218
G1 X87.41 Y24.886 E6.71606
G1 X88.06 Y26.006 E6.74042
G1 X88.409 Y26.645 E6.75412
G1 X88.804 Y27.401 E6.77016
G1 X89.081 Y27.942 E6.7816
G1 X89.379 Y28.559 E6.79448
G1 X89.981 Y29.878 E6.82176
G1 X90.263 Y30.544 E6.83536
G1 X90.586 Y31.349 E6.85168
G1 X90.869 Y32.076 E6.86635
G1 X91.08 Y32.662 E6.87807
G1 X91.58 Y34.131 E6.90726
G1 X91.76 Y34.736 E6.91913
G1 X91.96 Y35.429 E6.9327
G1 X92.125 Y36.011 E6.94408
G1 X92.177 Y36.202 E6.9478
G1 X92.323 Y36.775 E6.95893
G1 X92.366 Y36.953 E6.96237
G1 X92.633 Y38.121 E6.98491
G1 X92.786 Y38.856 E6.99903
G1 X92.822 Y39.043 E7.00261
G1 X93.033 Y40.221 E7.02512
G1 X93.064 Y40.409 E7.02871
G1 X93.153 Y40.992 E7.0398
G1 X93.178 Y41.168 E7.04314
G1 X93.33 Y42.353 E7.06562
G1 X93.351 Y42.538 E7.06912
G1 X93.428 Y43.301 E7.08355
G1 X93.521 Y44.491 E7.106
G1 X93.536 Y44.736 E7.11062
G1 X93.584 Y45.821 E7.13105
G1 X93.604 Y46.322 E7.14048
